src/topics/icons/karma.svg

<svg height="198" preserveAspectRatio="xMidYMid" viewBox="0 0 256 198" width="256" xmlns="http://www.w3.org/2000/svg"><path d="m154.565149 138.601931 39.245487 58.547494h62.043218l-70.310743-103.8830342z" fill="#429f87"/><path d="m29.4919847 169.993808 28.7357548-27.070283 45.9426815 54.2259-29.4919842-108.7744978-24.900659 40.9619618z" fill="#429f87"/><g fill="#56c5a8"><path d="m29.4919847 169.993808 45.1864521-81.6188808-28.7288889 27.0830348-45.9495479-54.2278624z"/><path d="m249.938391.60321839h-62.043219l-37.998835 56.14344831v-56.14344831h-56.9114481v58.22872031l30.3443371 111.8337473 7.070897 26.483739h19.496214v-49.138268z"/></g></svg>

<?xml version="1.0" encoding="UTF-8" standalone="no" ?>
<svg width="256px" height="198px" viewBox="0 0 256 198" version="1.1" xmlns="http://www.w3.org/2000/svg" xmlns:xlink="http://www.w3.org/1999/xlink" preserveAspectRatio="xMidYMid">
    <g>
        <path d="M154.565149,138.601931 L193.810636,197.149425 L255.853854,197.149425 L185.543111,93.2663908 L154.565149,138.601931" fill="#429F87"></path>
        <path d="M29.4919847,169.993808 L58.2277395,142.923525 L104.170421,197.149425 L74.6784368,88.3749272 L49.7777778,129.336889 L29.4919847,169.993808" fill="#429F87"></path>
        <path d="M29.4919847,169.993808 L74.6784368,88.3749272 L45.9495479,115.457962 L0,61.2300996 L29.4919847,169.993808" fill="#56C5A8"></path>
        <path d="M249.938391,0.603218391 L187.895172,0.603218391 L149.896337,56.7466667 L149.896337,0.603218391 L92.9848889,0.603218391 L92.9848889,58.8319387 L123.329226,170.665686 L130.400123,197.149425 L149.896337,197.149425 L149.896337,148.011157 L249.938391,0.603218391" fill="#56C5A8"></path>
    </g>
</svg>
